!! 00048] TT[KA
!! NN
!!!OTL: Renmin gongshe zhenzheng hao
!!!ARE: Asia, China,ÿJiangsu, Rugao
!! Ethnic Group: Han
!! III, 440
!!!SCT: C0319
!!!YEM: Copyright 1995, estate of Helmut Schaffrath.
**kern
*ICvox
*Ivox
*M2/4
*k[f#]
*G:
{8b
16b
16a
8g
8a
=1
8b
8dd
8b
8b
=2
8.b
16a
8.a
16g
=3
4.g}
{16g
16a
=4
8b
16b
16a
8g
8a
=5
8g
8a
8g
8a
=6
16a
16g
8e
8d
8d
=7
4.g}
{16g
16a
=8
8g
8a
8g
8a
=9
8.b
16a
8.a
16g
=10
2g}
=11
{8dd
8dd
8ee
8ee
=12
8dd
8ee
8dd
8ee
=13
8.ee
16dd
8.b
16a
=14
4.dd}
{16dd
16ee
=15
8dd
8ee
8dd
8ee
=16
8dd
8ee
8dd
8ee
=17
8.ee
16dd
8b
8a
=18
4.dd}
{16gg
16ee
=19
8dd
16ee
16gg
8b
16b
16a
=20
8g
8a
8g
8a
=21
16a
16g
8e
8d
8d
=22
2g}
=23
{8b
16b
16a
8g
8a
=24
8b
16b
16dd
8b
8b
=25
8.b
16a
8a
8g
=26
4.g}
{16g
16a
=27
8b
16b
16a
8g
8a
=28
8g
8a
8g
8a
=29
16a
16g
8e
8d
8d
=30
4.g}
{16g
16a
=31
8g
8a
8g
16a
16a
=32
8g
8a
8g
8a
=33
16a
16g
8e
8d
8d
=34
4.g}
{16g
16a
=35
8g
8a
8g
16a
16a
=36
8g
8a
8g
8a
=37
16a
16g
8e
8d
8d
=38
4.g}
{16g
16a
=39
8g
8a
8g
8a
=40
8g
8a
8g
8a
=41
16a
16g
8e
8d
8d
=42
[2g
=43
2g]}
==
!!!AGN: Haozi, Tiaodan Haozi. Xin minge
!! Leicht arrangiert, d.h. das Lied ist nicht mehr so schlicht wie
!!    das urspruengliche und verschiedene Lieder wurden hier
!!    aneinander gereiht.
!!    Vereinzelt Verzierungen. Vor- und Zwischenspiele weggelassen.
!!!ONB: ESAC (Essen Associative Code) Database: CHINA
!!!AMT: simple duple
!!!AIN: vox
!!!EED: Helmut Schaffrath
!!!EEV: 1.0
*-
!!!ONB: Tied note syntax fixed by Craig Sapp, 2004/05/03/
